outputs/icons/action/calendar_3_day_round.svg

<svg xmlns="http://www.w3.org/2000/svg" width="1200" height="1200" fill="none"><g clip-path="url(#a)"><path fill="#000" d="M950 200h-50v-50c0-27.5-22.5-50-50-50s-50 22.5-50 50v50H400v-50c0-27.5-22.5-50-50-50s-50 22.5-50 50v50h-50c-55.5 0-99.5 45-99.5 100l-.5 700c0 55 44.5 100 100 100h700c55 0 100-45 100-100V300c0-55-45-100-100-100m0 750c0 27.5-22.5 50-50 50H300c-27.5 0-50-22.5-50-50V450h700zM350 550h100v100H350zm200 0h100v100H550zm200 0h100v100H750z"/></g><defs><clipPath id="a"><path fill="#fff" d="M0 0h1200v1200H0z"/></clipPath></defs></svg>

<svg width="1200" height="1200" viewBox="0 0 1200 1200" fill="none" xmlns="http://www.w3.org/2000/svg"><g clip-path="url(#clip0_223_1904)"><path d="M950 200H900V150C900 122.5 877.5 100 850 100C822.5 100 800 122.5 800 150V200H400V150C400 122.5 377.5 100 350 100C322.5 100 300 122.5 300 150V200H250C194.5 200 150.5 245 150.5 300L150 1000C150 1055 194.5 1100 250 1100H950C1005 1100 1050 1055 1050 1000V300C1050 245 1005 200 950 200ZM950 950C950 977.5 927.5 1000 900 1000H300C272.5 1000 250 977.5 250 950V450H950V950ZM350 550H450V650H350V550ZM550 550H650V650H550V550ZM750 550H850V650H750V550Z" fill="#1D1E23"/></g><defs><clipPath id="clip0_223_1904"><path width="24" fill="white" d="M0 0H1200V1200H0V0z"/></clipPath></defs></svg>
